src/topics/icons/angellist.svg

<svg height="369" preserveAspectRatio="xMidYMid" viewBox="0 0 256 369" width="256" xmlns="http://www.w3.org/2000/svg"><path d="m214.899083 157.357798c15.266055 2.348624 25.834862 9.394496 31.706422 18.788991 5.871559 9.394495 9.394495 25.834862 9.394495 46.972477 0 42.275229-12.917431 77.504587-38.752294 104.513762-25.834862 27.009174-58.715596 41.100917-98.642201 41.100917-15.266055 0-30.5321105-2.348624-45.7981656-8.220184-15.266055-5.871559-27.0091743-14.091743-37.5779816-23.486238-11.7431193-10.568807-21.1376147-23.486239-27.00917431-35.229358-4.69724771-12.917431-8.22018349-25.834862-8.22018349-38.752293 0-14.091744 3.52293578-25.834863 9.39449541-34.055046 5.87155959-8.220184 16.44036699-12.917432 29.35779819-16.440367-2.3486239-5.87156-4.6972477-10.568808-5.8715597-15.266055-1.1743119-3.522936-2.3486238-7.045872-2.3486238-9.394496 0-7.045871 3.5229358-15.266055 11.7431193-23.486238 8.2201834-8.220184 15.266055-11.74312 22.3119266-11.74312 3.5229357 0 5.8715596 0 9.3944954 1.174312s7.0458715 2.348624 11.7431192 5.87156c-10.5688073-35.229358-21.1376146-64.5871559-27.0091743-84.5504587-5.8715596-19.9633027-8.2201835-32.8807339-8.2201835-41.1009174 0-10.5688074 2.3486239-18.7889909 8.2201835-24.66055049 4.6972477-5.87155963 12.9174312-9.39449541 22.3119266-9.39449541 15.2660551 0 35.2293581 35.2293578 59.8899081 106.862385 4.697248 11.74312 7.045872 21.137615 9.394496 28.183487 2.348623-4.697248 4.697247-12.917432 8.220183-22.311927 24.660551-70.4587156 45.798165-105.68807344 62.238532-105.68807344 8.220184 0 15.266055 2.34862385 21.137615 8.22018344 4.697248 5.8715597 8.220183 14.0917432 8.220183 23.4862386 0 7.0458715-2.348623 21.1376147-8.220183 41.1009174-7.045872 19.9633028-15.266055 45.798165-27.009174 77.504587zm-180.8440371 103.33945c2.3486238 2.348624 5.8715596 7.045871 9.3944954 12.917431 10.5688073 15.266055 21.1376147 23.486238 30.5321101 23.486238 3.5229358 0 5.8715596-1.174311 8.2201835-3.522935 2.3486238-2.348624 3.5229357-4.697248 3.5229357-5.87156 0-2.348624-1.1743119-7.045872-4.6972477-12.917431-3.5229357-5.87156-8.2201835-12.917431-14.0917431-19.963303-7.0458715-8.220183-12.9174312-15.266055-16.440367-18.788991-4.6972477-3.522936-8.2201834-5.871559-10.5688073-5.871559-5.8715596 0-11.7431193 3.522935-16.440367 9.394495s-7.0458715 14.091743-7.0458715 22.311927c0 7.045871 1.1743119 14.091743 4.6972477 23.486238 3.5229358 8.220184 8.2201835 17.614679 15.266055 25.834863 10.5688074 11.743119 22.3119266 22.311926 37.5779817 29.357798 15.266055 7.045871 30.5321096 10.568807 49.3211006 10.568807 32.880734 0 59.889909-11.743119 82.201835-36.40367 22.311927-24.66055 32.880734-55.19266 32.880734-92.770642 0-11.743119-1.174312-19.963303-2.348624-27.009174-1.174312-7.045872-4.697247-11.743119-8.220183-14.091743-7.045872-5.87156-19.963303-10.568808-39.926606-15.266055-19.963302-4.697248-41.100917-7.045872-62.238532-7.045872-5.871559 0-10.568807 1.174312-12.917431 3.522936s-3.522936 5.87156-3.522936 10.568807c0 11.743119 5.87156 19.963303 18.788991 24.660551 12.917431 4.697247 34.055046 8.220183 62.238532 8.220183h10.568807c2.348624 0 4.697248 1.174312 5.87156 2.348624 1.174312 2.348624 2.348624 4.697248 2.348624 8.220183-2.348624 2.348624-8.220184 5.87156-17.614679 9.394496s-15.266055 7.045871-19.963303 10.568807c-10.568807 7.045872-18.788991 16.440367-24.66055 27.009175-5.87156 10.568807-9.394496 19.963302-9.394496 29.357798 0 5.871559 1.174312 11.743119 3.522936 19.963302 2.348624 8.220184 3.522936 12.917432 3.522936 14.091744v2.348623 2.348624c-7.045872 0-12.917431-4.697247-17.614679-12.917431-4.697248-8.220183-5.87156-18.788991-5.87156-32.880734v-2.348624c-1.174311 1.174312-2.348623 2.348624-3.522935 2.348624s-2.348624 1.174312-4.697248 1.174312h-4.697248c-1.174312 0-2.348624-1.174312-4.697247-1.174312 0 2.348624 1.174311 3.522936 1.174311 5.87156v4.697248c0 5.871559-2.348623 11.743119-7.0458711 16.440366-4.6972477 4.697248-10.5688073 7.045872-17.6146789 7.045872-10.5688073 0-21.1376147-4.697248-32.8807339-15.266055-10.5688074-10.568807-16.440367-19.963303-16.440367-30.53211 0-2.348624 0-3.522936 1.1743119-4.697248 0-5.871559 1.1743119-7.045871 2.3486239-8.220183zm76.3302751 5.871559c2.348624 0 5.87156-1.174312 8.220184-3.522935 2.348623-2.348624 3.522935-5.87156 3.522935-8.220184 0-3.522936-2.348623-10.568807-7.045871-22.311927-4.697248-11.743119-10.568808-23.486238-17.6146791-34.055045-4.6972477-8.220184-10.5688073-15.266055-15.266055-18.788991-4.6972477-4.697248-9.3944955-5.87156-14.0917432-5.87156-3.5229357 0-7.0458715 2.348624-11.7431192 7.045872-4.6972477 4.697247-5.8715597 8.220183-5.8715597 12.917431 0 3.522936 2.3486239 10.568807 5.8715597 18.788991 4.6972477 8.220183 9.3944954 16.440367 16.4403669 25.834862 7.0458716 9.394496 14.0917432 17.614679 21.1376147 23.486239 7.0458719 2.348623 11.7431189 4.697247 16.4403669 4.697247zm24.660551-122.12844-28.183487-78.6788991c-7.0458712-19.9633028-11.7431189-34.0550459-16.4403667-39.9266055-3.5229357-5.8715596-7.0458715-9.3944954-11.7431192-9.3944954-3.5229358 0-5.8715597 1.1743119-8.2201835 3.5229358-3.5229358 3.5229357-4.6972477 7.0458715-4.6972477 11.7431192 0 8.2201835 3.5229358 21.1376147 9.3944954 39.9266055s15.266055 44.6238535 27.0091747 75.1559635c1.174312-2.348624 2.348623-3.522936 4.697247-3.522936 2.348624-1.174312 4.697248-1.174312 7.045872-1.174312h5.87156c3.522935 1.174312 8.220183 1.174312 15.266055 2.348624zm28.183486 76.330275c-7.045872 0-14.091743-1.174312-21.137615-2.348624-7.045871-1.174312-12.917431-2.348624-18.788991-4.697247 2.348624 5.871559 4.697248 10.568807 7.045872 16.440367 2.348624 5.871559 3.522936 10.568807 4.697248 16.440367 3.522935-4.697248 8.220183-9.394496 12.917431-14.091744 5.871559-4.697247 10.568807-8.220183 15.266055-11.743119zm34.055046-68.110092c11.743119-30.53211 19.963302-56.366972 27.009174-76.3302748 5.87156-19.9633027 9.394495-31.706422 9.394495-36.4036697s-1.174312-8.2201835-3.522935-11.7431193c-2.348624-2.3486238-4.697248-3.5229357-8.220184-3.5229357-4.697248 0-9.394495 3.5229357-14.091743 11.7431192s-10.568807 19.9633028-16.440367 37.5779817l-25.834862 72.8073396z"/></svg>

<?xml version="1.0" encoding="UTF-8" standalone="no"?>
<svg width="256px" height="369px" viewBox="0 0 256 369" version="1.1" xmlns="http://www.w3.org/2000/svg" xmlns:xlink="http://www.w3.org/1999/xlink" preserveAspectRatio="xMidYMid">
    <g>
        <path d="M214.899083,157.357798 C230.165138,159.706422 240.733945,166.752294 246.605505,176.146789 C252.477064,185.541284 256,201.981651 256,223.119266 C256,265.394495 243.082569,300.623853 217.247706,327.633028 C191.412844,354.642202 158.53211,368.733945 118.605505,368.733945 C103.33945,368.733945 88.0733945,366.385321 72.8073394,360.513761 C57.5412844,354.642202 45.7981651,346.422018 35.2293578,337.027523 C23.4862385,326.458716 14.0917431,313.541284 8.22018349,301.798165 C3.52293578,288.880734 0,275.963303 0,263.045872 C0,248.954128 3.52293578,237.211009 9.39449541,228.990826 C15.266055,220.770642 25.8348624,216.073394 38.7522936,212.550459 C36.4036697,206.678899 34.0550459,201.981651 32.8807339,197.284404 C31.706422,193.761468 30.5321101,190.238532 30.5321101,187.889908 C30.5321101,180.844037 34.0550459,172.623853 42.2752294,164.40367 C50.4954128,156.183486 57.5412844,152.66055 64.587156,152.66055 C68.1100917,152.66055 70.4587156,152.66055 73.9816514,153.834862 C77.5045872,155.009174 81.0275229,156.183486 85.7247706,159.706422 C75.1559633,124.477064 64.587156,95.1192661 58.7155963,75.1559633 C52.8440367,55.1926606 50.4954128,42.2752294 50.4954128,34.0550459 C50.4954128,23.4862385 52.8440367,15.266055 58.7155963,9.39449541 C63.412844,3.52293578 71.6330275,0 81.0275229,0 C96.293578,0 116.256881,35.2293578 140.917431,106.862385 C145.614679,118.605505 147.963303,128 150.311927,135.045872 C152.66055,130.348624 155.009174,122.12844 158.53211,112.733945 C183.192661,42.2752294 204.330275,7.04587156 220.770642,7.04587156 C228.990826,7.04587156 236.036697,9.39449541 241.908257,15.266055 C246.605505,21.1376147 250.12844,29.3577982 250.12844,38.7522936 C250.12844,45.7981651 247.779817,59.8899083 241.908257,79.853211 C234.862385,99.8165138 226.642202,125.651376 214.899083,157.357798 L214.899083,157.357798 Z M34.0550459,260.697248 C36.4036697,263.045872 39.9266055,267.743119 43.4495413,273.614679 C54.0183486,288.880734 64.587156,297.100917 73.9816514,297.100917 C77.5045872,297.100917 79.853211,295.926606 82.2018349,293.577982 C84.5504587,291.229358 85.7247706,288.880734 85.7247706,287.706422 C85.7247706,285.357798 84.5504587,280.66055 81.0275229,274.788991 C77.5045872,268.917431 72.8073394,261.87156 66.9357798,254.825688 C59.8899083,246.605505 54.0183486,239.559633 50.4954128,236.036697 C45.7981651,232.513761 42.2752294,230.165138 39.9266055,230.165138 C34.0550459,230.165138 28.1834862,233.688073 23.4862385,239.559633 C18.7889908,245.431193 16.440367,253.651376 16.440367,261.87156 C16.440367,268.917431 17.6146789,275.963303 21.1376147,285.357798 C24.6605505,293.577982 29.3577982,302.972477 36.4036697,311.192661 C46.9724771,322.93578 58.7155963,333.504587 73.9816514,340.550459 C89.2477064,347.59633 104.513761,351.119266 123.302752,351.119266 C156.183486,351.119266 183.192661,339.376147 205.504587,314.715596 C227.816514,290.055046 238.385321,259.522936 238.385321,221.944954 C238.385321,210.201835 237.211009,201.981651 236.036697,194.93578 C234.862385,187.889908 231.33945,183.192661 227.816514,180.844037 C220.770642,174.972477 207.853211,170.275229 187.889908,165.577982 C167.926606,160.880734 146.788991,158.53211 125.651376,158.53211 C119.779817,158.53211 115.082569,159.706422 112.733945,162.055046 C110.385321,164.40367 109.211009,167.926606 109.211009,172.623853 C109.211009,184.366972 115.082569,192.587156 128,197.284404 C140.917431,201.981651 162.055046,205.504587 190.238532,205.504587 L200.807339,205.504587 C203.155963,205.504587 205.504587,206.678899 206.678899,207.853211 C207.853211,210.201835 209.027523,212.550459 209.027523,216.073394 C206.678899,218.422018 200.807339,221.944954 191.412844,225.46789 C182.018349,228.990826 176.146789,232.513761 171.449541,236.036697 C160.880734,243.082569 152.66055,252.477064 146.788991,263.045872 C140.917431,273.614679 137.394495,283.009174 137.394495,292.40367 C137.394495,298.275229 138.568807,304.146789 140.917431,312.366972 C143.266055,320.587156 144.440367,325.284404 144.440367,326.458716 L144.440367,328.807339 L144.440367,331.155963 C137.394495,331.155963 131.522936,326.458716 126.825688,318.238532 C122.12844,310.018349 120.954128,299.449541 120.954128,285.357798 L120.954128,283.009174 C119.779817,284.183486 118.605505,285.357798 117.431193,285.357798 C116.256881,285.357798 115.082569,286.53211 112.733945,286.53211 L108.036697,286.53211 C106.862385,286.53211 105.688073,285.357798 103.33945,285.357798 C103.33945,287.706422 104.513761,288.880734 104.513761,291.229358 L104.513761,295.926606 C104.513761,301.798165 102.165138,307.669725 97.4678899,312.366972 C92.7706422,317.06422 86.8990826,319.412844 79.853211,319.412844 C69.2844037,319.412844 58.7155963,314.715596 46.9724771,304.146789 C36.4036697,293.577982 30.5321101,284.183486 30.5321101,273.614679 C30.5321101,271.266055 30.5321101,270.091743 31.706422,268.917431 C31.706422,263.045872 32.8807339,261.87156 34.0550459,260.697248 L34.0550459,260.697248 Z M110.385321,266.568807 C112.733945,266.568807 116.256881,265.394495 118.605505,263.045872 C120.954128,260.697248 122.12844,257.174312 122.12844,254.825688 C122.12844,251.302752 119.779817,244.256881 115.082569,232.513761 C110.385321,220.770642 104.513761,209.027523 97.4678899,198.458716 C92.7706422,190.238532 86.8990826,183.192661 82.2018349,179.669725 C77.5045872,174.972477 72.8073394,173.798165 68.1100917,173.798165 C64.587156,173.798165 61.0642202,176.146789 56.3669725,180.844037 C51.6697248,185.541284 50.4954128,189.06422 50.4954128,193.761468 C50.4954128,197.284404 52.8440367,204.330275 56.3669725,212.550459 C61.0642202,220.770642 65.7614679,228.990826 72.8073394,238.385321 C79.853211,247.779817 86.8990826,256 93.9449541,261.87156 C100.990826,264.220183 105.688073,266.568807 110.385321,266.568807 L110.385321,266.568807 Z M135.045872,144.440367 L106.862385,65.7614679 C99.8165138,45.7981651 95.1192661,31.706422 90.4220183,25.8348624 C86.8990826,19.9633028 83.3761468,16.440367 78.6788991,16.440367 C75.1559633,16.440367 72.8073394,17.6146789 70.4587156,19.9633028 C66.9357798,23.4862385 65.7614679,27.0091743 65.7614679,31.706422 C65.7614679,39.9266055 69.2844037,52.8440367 75.1559633,71.6330275 C81.0275229,90.4220183 90.4220183,116.256881 102.165138,146.788991 C103.33945,144.440367 104.513761,143.266055 106.862385,143.266055 C109.211009,142.091743 111.559633,142.091743 113.908257,142.091743 L119.779817,142.091743 C123.302752,143.266055 128,143.266055 135.045872,144.440367 L135.045872,144.440367 Z M163.229358,220.770642 C156.183486,220.770642 149.137615,219.59633 142.091743,218.422018 C135.045872,217.247706 129.174312,216.073394 123.302752,213.724771 C125.651376,219.59633 128,224.293578 130.348624,230.165138 C132.697248,236.036697 133.87156,240.733945 135.045872,246.605505 C138.568807,241.908257 143.266055,237.211009 147.963303,232.513761 C153.834862,227.816514 158.53211,224.293578 163.229358,220.770642 L163.229358,220.770642 Z M197.284404,152.66055 C209.027523,122.12844 217.247706,96.293578 224.293578,76.3302752 C230.165138,56.3669725 233.688073,44.6238532 233.688073,39.9266055 C233.688073,35.2293578 232.513761,31.706422 230.165138,28.1834862 C227.816514,25.8348624 225.46789,24.6605505 221.944954,24.6605505 C217.247706,24.6605505 212.550459,28.1834862 207.853211,36.4036697 C203.155963,44.6238532 197.284404,56.3669725 191.412844,73.9816514 L165.577982,146.788991 L197.284404,152.66055 L197.284404,152.66055 Z" fill="#000000"></path>
    </g>
</svg>
